set-left-right.svg

<svg fill="currentColor" viewBox="0 0 24 24"><path d="M9 5c1.04 0 2.06.24 3 .68.94-.44 1.96-.68 3-.68a7 7 0 0 1 7 7 7 7 0 0 1-7 7c-1.04 0-2.06-.24-3-.68-.94.44-1.96.68-3 .68a7 7 0 0 1-7-7 7 7 0 0 1 7-7m0 7c0 2.22 1.21 4.16 3 5.2 1.79-1.04 3-2.98 3-5.2s-1.21-4.16-3-5.2C10.21 7.84 9 9.78 9 12"/></svg>

<svg  viewBox="0 0 24 24" fill="currentColor"><path  d="M9,5C10.04,5 11.06,5.24 12,5.68C12.94,5.24 13.96,5 15,5A7,7 0 0,1 22,12A7,7 0 0,1 15,19C13.96,19 12.94,18.76 12,18.32C11.06,18.76 10.04,19 9,19A7,7 0 0,1 2,12A7,7 0 0,1 9,5M9,12C9,14.22 10.21,16.16 12,17.2C13.79,16.16 15,14.22 15,12C15,9.78 13.79,7.84 12,6.8C10.21,7.84 9,9.78 9,12Z"/></svg>
